public/logos/microsoft.svg

<svg fill="none" height="72" viewBox="0 0 338 72" width="338" xmlns="http://www.w3.org/2000/svg" xmlns:xlink="http://www.w3.org/1999/xlink"><clipPath id="a"><path d="m0 0h337.6v72h-337.6z"/></clipPath><g clip-path="url(#a)" fill="#fff"><path d="m140.4 14.4v43.1999h-7.5v-33.8999h-.1l-13.4 33.8999h-5l-13.7-33.8999h-.1v33.8999h-6.9v-43.1999h10.8l12.4 32h.2l13.1-32zm6.2 3.3c0-1.2.4-2.2 1.3-3s1.9-1.2 3.1-1.2c1.3 0 2.4.4 3.2 1.2s1.3 1.8 1.3 3-.4 2.2-1.3 3-1.9 1.2-3.2 1.2-2.3-.4-3.1-1.2c-.8-.9-1.3-1.9-1.3-3zm8.1 8.9v30.9999h-7.3v-30.9999zm22.1 25.6999c1.1 0 2.3-.1999 3.6-.7999 1.3-.5 2.5-1.2 3.6-2v6.7999c-1.2.7-2.5 1.2-4 1.5s-3.1.5-4.9.5c-4.6 0-8.3-1.3999-11.1-4.2999-2.9-2.9-4.3-6.6-4.3-11 0-5 1.5-9.1 4.4-12.3s7-4.8 12.4-4.8c1.4 0 2.8.2 4.1.5 1.4.3 2.5.8 3.3 1.2v6.9999c-1.1-.8-2.3-1.4999-3.4-1.8999-1.2-.4-2.4-.7-3.6-.7-2.9 0-5.2.8999-7 2.7999s-2.6 4.4001-2.6 7.6001c0 3.1.9 5.6 2.6 7.3s4 2.5999 6.9 2.5999zm27.9-26.1999c.6 0 1.1 0 1.6.1s.9.2 1.2.3v7.4c-.4-.3-.9-.6001-1.7-.8001s-1.6-.3999-2.7-.3999c-1.8 0-3.3.8-4.5 2.3s-1.9 3.8-1.9 7v15.5999h-7.3v-30.9999h7.3v4.9h.1c.7-1.7 1.7-3 3-4 1.4-.9 3-1.4 4.9-1.4zm3.2 16.4999c0-5.1 1.5-9.1999 4.3-12.1999 2.9-3 6.9-4.5 12-4.5 4.8 0 8.6 1.4 11.3 4.3s4.1 6.8 4.1 11.7c0 5-1.5 9-4.3 12-2.9 3-6.8 4.5-11.8 4.5-4.8 0-8.6-1.4-11.4-4.2-2.8-2.9-4.2-6.8001-4.2-11.6001zm7.6-.3c0 3.2.7 5.7001 2.2 7.4001s3.6 2.5999 6.3 2.5999c2.6 0 4.7-.7999 6.1-2.5999 1.4-1.7 2.1-4.2001 2.1-7.6001 0-3.3-.7-5.7999-2.1-7.5999-1.4-1.7-3.5-2.6-6-2.6-2.7 0-4.7.8999-6.2 2.6999-1.7 1.9-2.4 4.4-2.4 7.7zm35-7.5c0 1 .3 1.9 1 2.5s2.1 1.3001 4.4 2.2001c2.9 1.2 5 2.5 6.1 3.9 1.2 1.5 1.8 3.2 1.8 5.3 0 2.9-1.1 5.2-3.4 7-2.2 1.8-5.3 2.5999-9.1 2.5999-1.3 0-2.7-.2-4.3-.5s-2.9-.7-4-1.2v-7.1999c1.3.9 2.8 1.6999 4.3 2.1999s2.9.8001 4.2.8001c1.6 0 2.9-.2 3.6-.7.8-.5 1.2-1.2 1.2-2.3 0-1-.4-1.8001-1.2-2.6001-.8-.7-2.4-1.4999-4.6-2.3999-2.7-1.1-4.6-2.4001-5.7-3.8001s-1.7-3.1999-1.7-5.3999c0-2.8 1.1-5.1001 3.3-6.9001s5.1-2.6999 8.6-2.6999c1.1 0 2.3.1 3.6.4s2.5.6 3.4.9v7.1c-1-.6-2.1-1.2001-3.4-1.7001s-2.6-.6999-3.8-.6999c-1.4 0-2.5.3-3.2.8-.7.7-1.1 1.3999-1.1 2.3999zm16.4 7.8c0-5.1 1.5-9.1999 4.3-12.1999 2.9-3 6.9-4.5 12-4.5 4.8 0 8.6 1.4 11.3 4.3s4.1 6.8 4.1 11.7c0 5-1.5 9-4.3 12-2.9 3-6.8 4.5-11.8 4.5-4.8 0-8.6-1.4-11.4-4.2-2.7-2.9-4.2-6.8001-4.2-11.6001zm7.6-.3c0 3.2.7 5.7001 2.2 7.4001s3.6 2.5999 6.3 2.5999c2.6 0 4.7-.7999 6.1-2.5999 1.4-1.7 2.1-4.2001 2.1-7.6001 0-3.3-.7-5.7999-2.1-7.5999-1.4-1.7-3.5-2.6-6-2.6-2.7 0-4.7.8999-6.2 2.6999-1.6 1.9-2.4 4.4-2.4 7.7zm48.4-9.7h-10.9v25h-7.4v-25h-5.2v-5.9999h5.2v-4.3c0-3.2 1.1-5.9 3.2-8s4.8-3.1 8.1-3.1c.9 0 1.7.1 2.4.1s1.3.2 1.8.4v6.3c-.2-.1-.7-.3-1.3-.5s-1.3-.3-2.1-.3c-1.5 0-2.7.5-3.5 1.4s-1.2 2.4-1.2 4.2v3.7h10.9v-7l7.3-2.2v9.2h7.4v6h-7.4v14.5c0 1.9.4 3.2 1 4 .7.8 1.8 1.2 3.3 1.2.4 0 .9-.1 1.5-.3s1.1-.4 1.5-.7v6c-.5.3-1.2.5-2.3.7s-2.1.3-3.2.3c-3.1 0-5.4-.8001-6.9-2.4001s-2.3-4.0999-2.3-7.3999z"/><path d="m34.2 0h-34.2v34.2h34.2z"/><path d="m72 0h-34.2v34.2h34.2z"/><path d="m34.2 37.8h-34.2v34.2h34.2z"/><path d="m72 37.8h-34.2v34.2h34.2z"/></g></svg>

<svg width="338" height="72" viewBox="0 0 338 72" fill="none" xmlns="http://www.w3.org/2000/svg">
<g clip-path="url(#clip0_9_751)">
<path d="M140.4 14.4V57.5999H132.9V23.7H132.8L119.4 57.5999H114.4L100.7 23.7H100.6V57.5999H93.7V14.4H104.5L116.9 46.4H117.1L130.2 14.4H140.4ZM146.6 17.7C146.6 16.5 147 15.5 147.9 14.7C148.8 13.9 149.8 13.5 151 13.5C152.3 13.5 153.4 13.9 154.2 14.7C155 15.5 155.5 16.5 155.5 17.7C155.5 18.9 155.1 19.9 154.2 20.7C153.3 21.5 152.3 21.9 151 21.9C149.7 21.9 148.7 21.5 147.9 20.7C147.1 19.8 146.6 18.8 146.6 17.7ZM154.7 26.6V57.5999H147.4V26.6H154.7ZM176.8 52.2999C177.9 52.2999 179.1 52.1 180.4 51.5C181.7 51 182.9 50.3 184 49.5V56.2999C182.8 56.9999 181.5 57.4999 180 57.7999C178.5 58.0999 176.9 58.2999 175.1 58.2999C170.5 58.2999 166.8 56.9 164 54C161.1 51.1 159.7 47.4 159.7 43C159.7 38 161.2 33.9 164.1 30.7C167 27.5 171.1 25.9 176.5 25.9C177.9 25.9 179.3 26.1 180.6 26.4C182 26.7 183.1 27.2 183.9 27.6V34.5999C182.8 33.7999 181.6 33.1 180.5 32.7C179.3 32.3 178.1 32 176.9 32C174 32 171.7 32.8999 169.9 34.7999C168.1 36.6999 167.3 39.2 167.3 42.4C167.3 45.5 168.2 48 169.9 49.7C171.6 51.4 173.9 52.2999 176.8 52.2999ZM204.7 26.1C205.3 26.1 205.8 26.1 206.3 26.2C206.8 26.3 207.2 26.4 207.5 26.5V33.9C207.1 33.6 206.6 33.2999 205.8 33.0999C205 32.8999 204.2 32.7 203.1 32.7C201.3 32.7 199.8 33.5 198.6 35C197.4 36.5 196.7 38.8 196.7 42V57.5999H189.4V26.6H196.7V31.5H196.8C197.5 29.8 198.5 28.5 199.8 27.5C201.2 26.6 202.8 26.1 204.7 26.1ZM207.9 42.5999C207.9 37.4999 209.4 33.4 212.2 30.4C215.1 27.4 219.1 25.9 224.2 25.9C229 25.9 232.8 27.3 235.5 30.2C238.2 33.1 239.6 37 239.6 41.9C239.6 46.9 238.1 50.9 235.3 53.9C232.4 56.9 228.5 58.4 223.5 58.4C218.7 58.4 214.9 57 212.1 54.2C209.3 51.3 207.9 47.3999 207.9 42.5999ZM215.5 42.2999C215.5 45.4999 216.2 48 217.7 49.7C219.2 51.4 221.3 52.2999 224 52.2999C226.6 52.2999 228.7 51.5 230.1 49.7C231.5 48 232.2 45.4999 232.2 42.0999C232.2 38.7999 231.5 36.3 230.1 34.5C228.7 32.8 226.6 31.9 224.1 31.9C221.4 31.9 219.4 32.7999 217.9 34.5999C216.2 36.4999 215.5 38.9999 215.5 42.2999ZM250.5 34.7999C250.5 35.7999 250.8 36.6999 251.5 37.2999C252.2 37.8999 253.6 38.6 255.9 39.5C258.8 40.7 260.9 42 262 43.4C263.2 44.9 263.8 46.6 263.8 48.7C263.8 51.6 262.7 53.9 260.4 55.7C258.2 57.5 255.1 58.2999 251.3 58.2999C250 58.2999 248.6 58.0999 247 57.7999C245.4 57.4999 244.1 57.0999 243 56.5999V49.4C244.3 50.3 245.8 51.0999 247.3 51.5999C248.8 52.0999 250.2 52.4 251.5 52.4C253.1 52.4 254.4 52.2 255.1 51.7C255.9 51.2 256.3 50.5 256.3 49.4C256.3 48.4 255.9 47.5999 255.1 46.7999C254.3 46.0999 252.7 45.3 250.5 44.4C247.8 43.3 245.9 41.9999 244.8 40.5999C243.7 39.1999 243.1 37.4 243.1 35.2C243.1 32.4 244.2 30.0999 246.4 28.2999C248.6 26.4999 251.5 25.6 255 25.6C256.1 25.6 257.3 25.7 258.6 26C259.9 26.3 261.1 26.6 262 26.9V34C261 33.4 259.9 32.7999 258.6 32.2999C257.3 31.7999 256 31.6 254.8 31.6C253.4 31.6 252.3 31.9 251.6 32.4C250.9 33.1 250.5 33.7999 250.5 34.7999ZM266.9 42.5999C266.9 37.4999 268.4 33.4 271.2 30.4C274.1 27.4 278.1 25.9 283.2 25.9C288 25.9 291.8 27.3 294.5 30.2C297.2 33.1 298.6 37 298.6 41.9C298.6 46.9 297.1 50.9 294.3 53.9C291.4 56.9 287.5 58.4 282.5 58.4C277.7 58.4 273.9 57 271.1 54.2C268.4 51.3 266.9 47.3999 266.9 42.5999ZM274.5 42.2999C274.5 45.4999 275.2 48 276.7 49.7C278.2 51.4 280.3 52.2999 283 52.2999C285.6 52.2999 287.7 51.5 289.1 49.7C290.5 48 291.2 45.4999 291.2 42.0999C291.2 38.7999 290.5 36.3 289.1 34.5C287.7 32.8 285.6 31.9 283.1 31.9C280.4 31.9 278.4 32.7999 276.9 34.5999C275.3 36.4999 274.5 38.9999 274.5 42.2999ZM322.9 32.5999H312V57.5999H304.6V32.5999H299.4V26.6H304.6V22.3C304.6 19.1 305.7 16.4 307.8 14.3C309.9 12.2 312.6 11.2 315.9 11.2C316.8 11.2 317.6 11.3 318.3 11.3C319 11.3 319.6 11.5 320.1 11.7V18C319.9 17.9 319.4 17.7 318.8 17.5C318.2 17.3 317.5 17.2 316.7 17.2C315.2 17.2 314 17.7 313.2 18.6C312.4 19.5 312 21 312 22.8V26.5H322.9V19.5L330.2 17.3V26.5H337.6V32.5H330.2V47C330.2 48.9 330.6 50.2 331.2 51C331.9 51.8 333 52.2 334.5 52.2C334.9 52.2 335.4 52.1 336 51.9C336.6 51.7 337.1 51.5 337.5 51.2V57.2C337 57.5 336.3 57.7 335.2 57.9C334.1 58.1 333.1 58.2 332 58.2C328.9 58.2 326.6 57.3999 325.1 55.7999C323.6 54.1999 322.8 51.7 322.8 48.4L322.9 32.5999Z" fill="white"/>
<path d="M34.2 0H0V34.2H34.2V0Z" fill="white"/>
<path d="M72 0H37.8V34.2H72V0Z" fill="white"/>
<path d="M34.2 37.8H0V72H34.2V37.8Z" fill="white"/>
<path d="M72 37.8H37.8V72H72V37.8Z" fill="white"/>
</g>
<defs>
<clipPath id="clip0_9_751">
<rect width="337.6" height="72" fill="white"/>
</clipPath>
</defs>
</svg>
